X:1
T:There's an Empty Cot in the Bunkhouse
M:3/4
L:1/8
K:C
 EF| G4 G2| G4 GA| G F3 C2| F4 CD| E E3- E2| G4 FE| D6-| D4 E2| G4 G2|\
 G6| G F3 C2| F4 CD| E4 FE| D2 C2 B,2| C6-| C4 CC| A4 A2| A4 A2| A G3- G2-|\
 G4 EF| G A3 G2| E3 F E2| D6-| D4 E2| G4 G2| G2 G4| G F3- FC| F4 CD|\
 E3 F E2| D4 B,2| C6-| C4||
